svg/leaf_maple.svg

<svg xmlns="http://www.w3.org/2000/svg" viewBox="0 0 24 24"><path d="M21.79 13 16 16l1 2-4-.75V21h-2v-3.75L7 18l1-2-5.79-3 1-1.73L1.61 8l3.6-.23 1-1.77 3.42 3.9L8 5h2l2-3 2 3h2l-1.63 4.9L17.79 6l1 1.73 3.6.23-1.6 3.23z"/></svg>

<?xml version="1.0" encoding="UTF-8"?><!DOCTYPE svg PUBLIC "-//W3C//DTD SVG 1.1//EN" "http://www.w3.org/Graphics/SVG/1.1/DTD/svg11.dtd"><svg xmlns="http://www.w3.org/2000/svg" xmlns:xlink="http://www.w3.org/1999/xlink" version="1.1" id="mdi-leaf-maple" width="24" height="24" viewBox="0 0 24 24"><path d="M21.79,13L16,16L17,18L13,17.25V21H11V17.25L7,18L8,16L2.21,13L3.21,11.27L1.61,8L5.21,7.77L6.21,6L9.63,9.9L8,5H10L12,2L14,5H16L14.37,9.9L17.79,6L18.79,7.73L22.39,7.96L20.79,11.19L21.79,13Z" /></svg>
